X: 38969
T: Swallow's
R: reel
M: 4/4
K: Dmajor
d3B|:AFDF AFBF|AFDF GECE|AFDF ABde|(3fga fd gecB|
AFDF AFBF|AFDF GECE|FAdB GBed|1 ceag fedB:|2 ceag fdfg||
|:abaf abaf|abaf gece|a2aa afdf|fece edfg|
abaf abaf|abaf gecA|FAdB GBed|1 ceag fdfg:|2 ceag fedB||

